X:1
T:Vesper adest
T:Daniel Friderici
T:Source : Bicinia sacra---Rostock---J.Richelius---1642. Editor : André Vierendeels (06/07/17).
T:Notes : Original clefs : G2, G2 Editorial accidentals above the staff
T:Vesper adest
T:©
T:©
C:Daniel Friderici
Z:©
%%score [ 1 2 ]
L:1/8
Q:1/4=120
M:2/2
K:F
V:1 treble nm="Soprano 1" snm="S 1"
V:2 treble nm="Soprano 2" snm="S 2"
V:1
 d6 c2 | B4 A4 | z2 d4 c2 | B4 A4 | G2 d2 c2 BA | B2 AG A2 GF | E2 FG A2 GF | G2 AB c2 BA | %8
w: Ves- per|ad- est,|ves- per|ad- est|ne te var- * *||||
 B2 cd e2 de | f2 ef g2 fg | a2 ga g2 ag | f2 ed ^c4- | c2 d2 e4 | d4 f2 e2 | d2 c2 B2 A2 | %15
w: |||* * * gus|_ er- ror|du- * *||
 G2 A2 B2 A2 | G4 F2 F2 | _E2 D2 C2 D2 | _E2 D2 C4 | D8 :: d2 de f4 | z4 d2 de | f4 e2 de | %23
w: |* cat in|um- * * *||bras:|Lux tu- a fit,|Lux tu- a-|fit, Lux tu- a|
 f4 d2 de | f2 d3 c c2- | cB B3 A/G/ A2 | B4 d2 dd | c2 B2 A4 | G8 | c2 cc d2 B2 | A4 G4 | %31
w: fit, Lux tu- a-|fit Chri- * *||||stus,|cae- te- ra noc- tis|e- runt,|
 c2 cc d2 B2 | A4 G2 d2- | d2 B2 A4 | G8 :| %35
w: cae- te- ra noc- tis|e- runt, noc-|* tis e-|runt.|
V:2
 z8 | d6 c2 | B4 A4 | z2 d4 c2 | B4 A4 | G2 d2 c2 BA | G2 d2 c2 BA | B2 AG A2 GF | G2 AB c2 Bc | %9
w: |Ves- per|ad- est,|ves- per|ad- est|ne te va- * *||||
 d2 cd e2 fg | f2 ef g2 fg | a2 gf e4- | e2 d4 ^c2 | d8 | f2 e2 d2 c2 | B2 A2 G2 A2 | B4 A2 A2 | %17
w: |||* gus er-|ror|du- * * *||* cat in|
 G2 F2 _E2 D2 | C2 D2 _E4 | D8 :: z8 | d2 de f4 | d2 de f4 | d2 de f4 | z2 f3 e e2- | %25
w: um- * * *||bras:||Lux tu- a fit,|Lux tu- a fit,|Lux tu- a fit,|Chri- * *|
 ed d3 c/B/ c2 | B8 | z8 | d2 dd c2 B2 | A4 G4 | c2 cc d2 B2 | A4 G4 | c2 cc d2 B2 | %33
w: |stus,||cae- te- ra noc- tis|e- runt,|cae- te- ra noc- tis|e- runt,|cae- te- ra noc- tis|
 AG G3 ^F/E/ F2 | G8 :| %35
w: e- * * * * *|runt.|

